local/share/icons/dracula-icons-main/scalable/mimetypes/text-x-authors.svg

<?xml version="1.0" encoding="UTF-8"?>
<svg xmlns="http://www.w3.org/2000/svg" xmlns:xlink="http://www.w3.org/1999/xlink" width="64" height="64" viewBox="0 0 64 64">
<defs>
<filter id="filter-remove-color" x="0%" y="0%" width="100%" height="100%">
<feColorMatrix color-interpolation-filters="sRGB" values="0 0 0 0 1 0 0 0 0 1 0 0 0 0 1 0 0 0 1 0" />
</filter>
<mask id="mask-0">
<g filter="url(#filter-remove-color)">
<rect x="-6.4" y="-6.4" width="76.8" height="76.8" fill="rgb(0%, 0%, 0%)" fill-opacity="0.1"/>
</g>
</mask>
<linearGradient id="linear-pattern-0" gradientUnits="userSpaceOnUse" x1="49.570999" y1="52.714001" x2="51.714001" y2="54.856998" gradientTransform="matrix(0.617345, 0, 0, 0.617345, -18.167916, -19.050025)">
<stop offset="0" stop-color="rgb(0%, 0%, 0%)" stop-opacity="1"/>
<stop offset="1" stop-color="rgb(0%, 0%, 0%)" stop-opacity="0"/>
</linearGradient>
<clipPath id="clip-0">
<rect x="0" y="0" width="17" height="17"/>
</clipPath>
<g id="source-2417" clip-path="url(#clip-0)">
<path fill-rule="evenodd" fill="url(#linear-pattern-0)" d="M 14.816406 12.171875 L 11.113281 15.875 L 13.492188 15.875 C 14.226562 15.875 14.816406 15.285156 14.816406 14.550781 Z M 14.816406 12.171875 "/>
</g>
</defs>
<path fill-rule="nonzero" fill="rgb(95.686275%, 95.686275%, 95.686275%)" fill-opacity="1" d="M 3.441406 1.058594 L 13.492188 1.058594 C 14.222656 1.058594 14.816406 1.652344 14.816406 2.382812 L 14.816406 14.550781 C 14.816406 15.28125 14.222656 15.875 13.492188 15.875 L 3.441406 15.875 C 2.707031 15.875 2.117188 15.28125 2.117188 14.550781 L 2.117188 2.382812 C 2.117188 1.652344 2.707031 1.058594 3.441406 1.058594 Z M 3.441406 1.058594 "/>
<g mask="url(#mask-0)">
<use xlink:href="#source-2417"/>
</g>
<path fill-rule="nonzero" fill="rgb(70.196078%, 70.196078%, 70.196078%)" fill-opacity="1" d="M 7.714844 5.554688 C 6.972656 5.554688 6.371094 6.15625 6.371094 6.898438 C 6.371094 7.640625 6.972656 8.242188 7.714844 8.242188 C 8.457031 8.242188 9.058594 7.640625 9.058594 6.898438 C 9.058594 6.15625 8.457031 5.554688 7.714844 5.554688 Z M 9.949219 6.425781 L 9.953125 6.429688 C 9.777344 6.429688 9.613281 6.46875 9.46875 6.535156 C 9.492188 6.652344 9.503906 6.773438 9.503906 6.898438 C 9.503906 7.390625 9.300781 7.839844 8.972656 8.164062 C 9.179688 8.480469 9.539062 8.691406 9.949219 8.691406 C 10.59375 8.691406 11.113281 8.183594 11.113281 7.558594 C 11.113281 6.933594 10.59375 6.425781 9.949219 6.425781 Z M 7.714844 9.136719 C 5.027344 9.136719 5.027344 10.929688 5.027344 10.929688 L 5.027344 11.375 L 10.398438 11.375 L 10.398438 10.929688 C 10.398438 10.929688 10.398438 9.132812 7.714844 9.136719 Z M 9.953125 9.136719 C 9.863281 9.136719 9.785156 9.144531 9.703125 9.148438 C 10.015625 9.328125 10.253906 9.539062 10.421875 9.765625 C 10.84375 10.328125 10.847656 10.929688 10.847656 10.929688 L 12.191406 10.929688 L 12.191406 10.480469 C 12.191406 10.480469 12.191406 9.136719 9.953125 9.136719 Z M 9.953125 9.136719 "/>
</svg>

<svg width="64" height="64" version="1.1" viewBox="0 0 16.933 16.933" xmlns="http://www.w3.org/2000/svg">
 <defs>
  <linearGradient id="a" x1="49.571" x2="51.714" y1="52.714" y2="54.857" gradientTransform="matrix(2.3333,0,0,2.3333,-68.667,-72.001)" gradientUnits="userSpaceOnUse">
   <stop offset="0"/>
   <stop stop-opacity="0" offset="1"/>
  </linearGradient>
 </defs>
 <g transform="scale(.26458)">
  <rect x="8" y="4" width="48" height="56" ry="5" fill="#f4f4f4" style="paint-order:stroke fill markers"/>
  <path d="m56 46-14 14h9c2.77 0 5-2.23 5-5z" fill="url(#a)" fill-rule="evenodd" opacity=".1" stroke-width="8.8191" style="paint-order:stroke fill markers"/>
 </g>
 <path class="ColorScheme-Text" d="m7.7135 5.5561c-0.74187 0-1.3432 0.60141-1.3432 1.3432s0.60137 1.3432 1.3432 1.3432c0.74187 0 1.3432-0.60141 1.3432-1.3432s-0.60137-1.3432-1.3432-1.3432zm2.237 0.87101 0.00178 0.00174c-0.17385 0-0.33729 0.039984-0.48535 0.10669 0.024445 0.11733 0.037603 0.23869 0.037603 0.36292 0 0.49346-0.20337 0.94214-0.52995 1.2672 0.20596 0.31342 0.56402 0.52383 0.97595 0.52383 0.64149 0 1.1613-0.50609 1.1613-1.1307s-0.51986-1.1316-1.1613-1.1316zm-2.237 2.7092c-2.6866 0.0015224-2.6865 1.7927-2.6865 1.7927v0.44775h5.373v-0.44775s0-1.7955-2.6865-1.791zm2.2387 8.715e-4v8.8e-4c-0.087804 0-0.16643 0.00564-0.24748 0.00961 0.31233 0.17895 0.55033 0.39271 0.71797 0.61653 0.42088 0.56416 0.42501 1.164 0.42501 1.164h1.3432v-0.44775s0-1.3432-2.2387-1.3432z" fill="#b3b3b3" stroke-width=".44775"/>
</svg>
